!!!COM: Bach, Johann Sebastian
!!!CDT: 1685/3//-1750/7/28/
!!!OTL@@DE: Vater unser im Himmelreich
!!!OTL@EN: Our Father in Heaven
!!!AGN: 4-Part Chorale
!!!SCT: BH 110
!!!SCT: BWV 102
**harm	**root	**kern	**kern	**kern	**kern
!	!	!bass	!tenor	!alto	!soprno
*	*Iorgan	*Iorgan	*Iorgan	*Iorgan	*Iorgan
*M4/4	*M4/4	*M4/4	*M4/4	*M4/4	*M4/4
*met(c)	*met(c)	*met(c)	*met(c)	*met(c)	*met(c)
*MM60	*MM60	*MM60	*MM60	*MM60	*MM60
*k[f#]	*k[f#]	*k[f#]	*k[f#]	*k[f#]	*k[f#]
*e:	*e:	*e:	*e:	*e:	*e:
i	4CC	4E	4e	4g	4b
=1	=1	=1	=1	=1	=1
Vb	4GG	4D#	4B	4f#	4b
i	4CC	4E	4B	4e	4g
ivb	4FF	4c	4e	8e	4a
.	.	.	.	8f#	.
ib	8CC	8G	8e	8g	8b
iiob	8DD	8A	8c	8f#	8a
=2	=2	=2	=2	=2	=2
ic	4CC	4B	4B	4e	4g
V	4GG	4BB	8B	4d#	4f#
.	.	.	8A	.	.
i;	4CC;	4E;	4G;	4B;	4e;
i	4CC	4e	4e	4g	4b
=3	=3	=3	=3	=3	=3
iiib	4EE-	8B	4d	4g	4b
.	.	8c	.	.	.
-VII	4BB-	4d	4d	8f#	4a
.	.	.	.	8g	.
-VIIb	4BB-	4F#	4d	4a	4dd
III	4EE-	4G	4d	8g	8b
.	.	.	.	8f#	8a
=4	=4	=4	=4	=4	=4
VI	4AA-	4c	4e	8e	4g
.	.	.	.	8d#	.
ivb	4FF	4C	4c	8e	4a
.	.	.	.	8f#	.
V;	4GG;	4BB;	4F#;	4d#;	4b;
i	4CC	4E	4e	4g	8b
.	.	.	.	.	8cc#
=5	=5	=5	=5	=5	=5
v	4GG	4B	4dy	4f#	4dd
iv7	4FF	4A	4c	8g	8ee
.	.	.	.	8a	8ff#
ib	4CC	4G	4B	4b	4gg
ii	8DD	8A	8c#	4a	4ff#
V7	8GG	8B	8d#	.	.
=6	=6	=6	=6	=6	=6
VI	4AA-	4cy	4e	8g	4ee
.	.	.	.	8a	.
V	4GG	4B	4f#	4b	4dd#
i;	4CC;	4E;	4g;	4b;	4ee;
IV	4FF	4A	4c#	4a	4ee
!!linebreak: 2
=7	=7	=7	=7	=7	=7
-VII	4BB-	4d	4d	4a	4ff#
viib/V	4FF#	4c#	4e	4a#	4ee
V	4GG	4B	4f#	4b	4dd
#viD7	8AA	8E	8g	8b	4cc#
V/V	8DD	8F#	8f#	8a#	.
=8	=8	=8	=8	=8	=8
ib	4CC	4G	8f#	4b	4b
.	.	.	8e	.	.
V7/V	4DD	4F#	8e	4a#	4cc#
.	.	.	8d#	.	.
V;	4GG;	4BB;	4d#;	4f#;	4b;
IV	4FF	8A	4c#	4a	4ee
.	.	8G	.	.	.
=9	=9	=9	=9	=9	=9
-VIIb	4BB-	4F#	4d	4a	4dd
#viob	4AA	4E	4e	4g	4cc#
-VII	4BB-	4D	4A	4f#	8dd
.	.	.	.	.	8cc
i	4CC	8E	4G	8g	4b
.	.	8D	.	8f#	.
=10	=10	=10	=10	=10	=10
VI7	4AA-	4C	4G	4e	4b
-VII	4BB-	4D	8d	4f#	4a
.	.	.	8c	.	.
III;	4EE-;	4G;	4B;	4d;	4g;
Ib	4CC	4G#	4e	4e	4b
=11	=11	=11	=11	=11	=11
iv	4FF	4A	4e	4a	4cc
V7	4GG	4B	4d#	8g	8b
.	.	.	.	8f#	8a
VI	4AA-	8c	8e	4e	4g
.	.	8B	8d	.	.
iv	4FF	4A	4c	8f#	4a
.	.	.	.	8e	.
=12	=12	=12	=12	=12	=12
ic	4CC	4B	4B	8d#	4g
.	.	.	.	8e	.
V	4GG	4BB	8B	8e	4f#
.	.	.	8A	8d#	.
I;	4CC;	4E;	4G#;	4B;	4e;
==	==	==	==	==	==
*-	*-	*-	*-	*-	*-
!!chor2scor: -l 2 -s 0.6 -o %b.pmx
!!!YEC: Copyright 1994, David Huron
!!!YEC: Changes/Additions 2001 by Craig Stuart Sapp
!!!YEN: United States of America
!!!SMA: 371 Bach Chorales, edited by Ludwig Erk, C.F. Peters
!!!PDT: 1850, 1865
!!!ONB: Harmony and Root analysis done manually
